apps/24/start-button.svg

<?xml version="1.0" encoding="UTF-8"?>
<!-- Created with Inkscape (http://www.inkscape.org/) -->
<svg width="24" height="24" version="1.1" xmlns="http://www.w3.org/2000/svg" xmlns:cc="http://creativecommons.org/ns#" xmlns:dc="http://purl.org/dc/elements/1.1/" xmlns:rdf="http://www.w3.org/1999/02/22-rdf-syntax-ns#">
	<defs>
		<radialGradient id="b" cx="12" cy="12" r="9" gradientTransform="matrix(1.7778 0 0 1.7778 -9.3334 -9.3334)" gradientUnits="userSpaceOnUse">
			<stop stop-color="#ffffff" stop-opacity=".8252" offset="0"/>
			<stop stop-color="#ffffff" stop-opacity=".6051" offset="1"/>
		</radialGradient>
		<radialGradient id="a" cx="-9371.3" cy="4850.4" r="7" gradientTransform="matrix(2.3714 0 0 2.2019 18870 -8574.5)" gradientUnits="userSpaceOnUse">
			<stop stop-color="#213851" stop-opacity=".9059" offset="0"/>
			<stop stop-color="#27303a" stop-opacity="0" offset="1"/>
		</radialGradient>
	</defs>
	<metadata>
		<rdf:RDF>
			<cc:Work rdf:about="">
				<dc:format>image/svg+xml</dc:format>
				<dc:type rdf:resource="http://purl.org/dc/dcmitype/StillImage"/>
				<dc:title/>
			</cc:Work>
		</rdf:RDF>
	</metadata>
	<g transform="translate(3364.4 -2092.7)">
		<path transform="translate(-3364.4 2092.7)" d="m16 3c-0.9 0-1.549 0.67841-1.793 1.5078-0.3435-0.2768-0.73953-0.50781-1.207-0.50781h-2c-1.0906 0-2 0.9094-2 2 0-1.0906-0.9094-2-2-2h-1c-1.0906 0-2 0.9094-2 2v1c0 1.0906 0.9094 2 2 2-1.0906 0-2 0.9094-2 2v2c0 0.4675 0.23101 0.86353 0.50781 1.207-0.8294 0.244-1.5078 0.89297-1.5078 1.793v3c0 1.0906 0.9094 2 2 2h3c0.9 0 1.549-0.67841 1.793-1.5078 0.3435 0.2768 0.73953 0.50781 1.207 0.50781h2c1.0906 0 2-0.9094 2-2 0 1.0906 0.9094 2 2 2h1c1.0906 0 2-0.9094 2-2v-1c0-1.0906-0.9094-2-2-2 1.0906 0 2-0.9094 2-2v-2c0-0.4675-0.23101-0.86353-0.50781-1.207 0.8294-0.244 1.5078-0.89297 1.5078-1.793v-3c0-1.0906-0.9094-2-2-2h-3zm0 1h3c0.5541 0 1 0.4459 1 1v3c0 0.5541-0.4459 1-1 1h-3c-0.5541 0-1-0.4459-1-1v-3c0-0.5541 0.4459-1 1-1zm-10 1h1c0.5541 0 1 0.4459 1 1v1c0 0.5541-0.4459 1-1 1h-1c-0.5541 0-1-0.4459-1-1v-1c0-0.5541 0.4459-1 1-1zm5 0h2c0.5541 0 1 0.4459 1 1v2c0 0.5541-0.4459 1-1 1h-2c-0.5541 0-1-0.4459-1-1v-2c0-0.5541 0.4459-1 1-1zm-2 2v1c0 0.63 0.34405 1.1313 0.81055 1.5-0.1254 0.099-0.21145 0.18515-0.31055 0.31055-0.3687-0.4665-0.87-0.81055-1.5-0.81055h-1c1.0906 0 2-0.9094 2-2zm5.5 2.1895c0.099 0.1254 0.18515 0.21145 0.31055 0.31055-0.1254 0.099-0.21145 0.18515-0.31055 0.31055-0.099-0.1254-0.18515-0.21145-0.31055-0.31055 0.1254-0.099 0.21145-0.18515 0.31055-0.31055zm-8.5 0.81055h2c0.5541 0 1 0.4459 1 1v2c0 0.5541-0.4459 1-1 1h-2c-0.5541 0-1-0.4459-1-1v-2c0-0.5541 0.4459-1 1-1zm5 0h2c0.5541 0 1 0.4459 1 1v2c0 0.5541-0.4459 1-1 1h-2c-0.5541 0-1-0.4459-1-1v-2c0-0.5541 0.4459-1 1-1zm5 0h2c0.5541 0 1 0.4459 1 1v2c0 0.5541-0.4459 1-1 1h-2c-0.5541 0-1-0.4459-1-1v-2c0-0.5541 0.4459-1 1-1zm-6.5 4.1895c0.099 0.1254 0.18515 0.21145 0.31055 0.31055-0.1254 0.099-0.21145 0.18515-0.31055 0.31055-0.099-0.1254-0.18515-0.21145-0.31055-0.31055 0.1254-0.099 0.21145-0.18515 0.31055-0.31055zm5 0c0.3687 0.4665 0.87 0.81055 1.5 0.81055h1c-1.0906 0-2 0.9094-2 2v-1c0-0.63-0.34405-1.1313-0.81055-1.5 0.1254-0.099 0.21145-0.18515 0.31055-0.31055zm-9.5 0.81055h3c0.5541 0 1 0.4459 1 1v3c0 0.5541-0.4459 1-1 1h-3c-0.5541 0-1-0.4459-1-1v-3c0-0.5541 0.4459-1 1-1zm6 0h2c0.5541 0 1 0.4459 1 1v2c0 0.5541-0.4459 1-1 1h-2c-0.5541 0-1-0.4459-1-1v-2c0-0.5541 0.4459-1 1-1zm6 1h1c0.5541 0 1 0.4459 1 1v1c0 0.5541-0.4459 1-1 1h-1c-0.5541 0-1-0.4459-1-1v-1c0-0.5541 0.4459-1 1-1z" color="#000000" color-rendering="auto" dominant-baseline="auto" fill="url(#b)" image-rendering="auto" shape-rendering="auto" solid-color="#000000" style="font-feature-settings:normal;font-variant-alternates:normal;font-variant-caps:normal;font-variant-east_asian:normal;font-variant-ligatures:normal;font-variant-numeric:normal;font-variant-position:normal;isolation:auto;mix-blend-mode:normal;paint-order:normal;shape-padding:0;text-decoration-color:#000000;text-decoration-line:none;text-decoration-style:solid;text-indent:0;text-orientation:mixed;text-transform:none;white-space:normal"/>
		<path d="m-3348.4 2096.7c-0.5541 0-1 0.4459-1 1v3c0 0.5541 0.4459 1 1 1h3c0.5541 0 1-0.4459 1-1v-3c0-0.5541-0.4459-1-1-1zm-10 1c-0.5541 0-1 0.4459-1 1v1c0 0.5541 0.4459 1 1 1h1c0.5541 0 1-0.4459 1-1v-1c0-0.5541-0.4459-1-1-1zm5 0c-0.5541 0-1 0.4459-1 1v2c0 0.5541 0.4459 1 1 1h2c0.5541 0 1-0.4459 1-1v-2c0-0.5541-0.4459-1-1-1zm-5 5c-0.5541 0-1 0.4459-1 1v2c0 0.5541 0.4459 1 1 1h2c0.5541 0 1-0.4459 1-1v-2c0-0.5541-0.4459-1-1-1zm5 0c-0.5541 0-1 0.4459-1 1v2c0 0.5541 0.4459 1 1 1h2c0.5541 0 1-0.4459 1-1v-2c0-0.5541-0.4459-1-1-1zm5 0c-0.5541 0-1 0.4459-1 1v2c0 0.5541 0.4459 1 1 1h2c0.5541 0 1-0.4459 1-1v-2c0-0.5541-0.4459-1-1-1zm-11 5c-0.5541 0-1 0.4459-1 1v3c0 0.5541 0.4459 1 1 1h3c0.5541 0 1-0.4459 1-1v-3c0-0.5541-0.4459-1-1-1zm6 0c-0.5541 0-1 0.4459-1 1v2c0 0.5541 0.4459 1 1 1h2c0.5541 0 1-0.4459 1-1v-2c0-0.5541-0.4459-1-1-1zm6 1c-0.5541 0-1 0.4459-1 1v1c0 0.5541 0.4459 1 1 1h1c0.5541 0 1-0.4459 1-1v-1c0-0.5541-0.4459-1-1-1z" fill="#090d11" fill-opacity=".76621" style="paint-order:normal"/>
		<path d="m-3348.4 2096.7c-0.5541 0-1 0.4459-1 1v3c0 0.5541 0.4459 1 1 1h3c0.5541 0 1-0.4459 1-1v-3c0-0.5541-0.4459-1-1-1zm-10 1c-0.5541 0-1 0.4459-1 1v1c0 0.5541 0.4459 1 1 1h1c0.5541 0 1-0.4459 1-1v-1c0-0.5541-0.4459-1-1-1zm5 0c-0.5541 0-1 0.4459-1 1v2c0 0.5541 0.4459 1 1 1h2c0.5541 0 1-0.4459 1-1v-2c0-0.5541-0.4459-1-1-1zm-5 5c-0.5541 0-1 0.4459-1 1v2c0 0.5541 0.4459 1 1 1h2c0.5541 0 1-0.4459 1-1v-2c0-0.5541-0.4459-1-1-1zm5 0c-0.5541 0-1 0.4459-1 1v2c0 0.5541 0.4459 1 1 1h2c0.5541 0 1-0.4459 1-1v-2c0-0.5541-0.4459-1-1-1zm5 0c-0.5541 0-1 0.4459-1 1v2c0 0.5541 0.4459 1 1 1h2c0.5541 0 1-0.4459 1-1v-2c0-0.5541-0.4459-1-1-1zm-11 5c-0.5541 0-1 0.4459-1 1v3c0 0.5541 0.4459 1 1 1h3c0.5541 0 1-0.4459 1-1v-3c0-0.5541-0.4459-1-1-1zm6 0c-0.5541 0-1 0.4459-1 1v2c0 0.5541 0.4459 1 1 1h2c0.5541 0 1-0.4459 1-1v-2c0-0.5541-0.4459-1-1-1zm6 1c-0.5541 0-1 0.4459-1 1v1c0 0.5541 0.4459 1 1 1h1c0.5541 0 1-0.4459 1-1v-1c0-0.5541-0.4459-1-1-1z" fill="url(#a)" style="font-variant-east_asian:normal;paint-order:normal"/>
	</g>
</svg>

<?xml version="1.0" encoding="UTF-8" standalone="no"?>
<!-- Created with Inkscape (http://www.inkscape.org/) -->

<svg
   xmlns:dc="http://purl.org/dc/elements/1.1/"
   xmlns:cc="http://creativecommons.org/ns#"
   xmlns:rdf="http://www.w3.org/1999/02/22-rdf-syntax-ns#"
   xmlns:svg="http://www.w3.org/2000/svg"
   xmlns="http://www.w3.org/2000/svg"
   xmlns:sodipodi="http://sodipodi.sourceforge.net/DTD/sodipodi-0.dtd"
   xmlns:inkscape="http://www.inkscape.org/namespaces/inkscape"
   width="24"
   height="24"
   id="svg27665"
   version="1.1"
   inkscape:version="0.92.2 5c3e80d, 2017-08-06"
   sodipodi:docname="folder-evolvere.svg">
  <defs
     id="defs27667" />
  <sodipodi:namedview
     id="base"
     pagecolor="#ffffff"
     bordercolor="#666666"
     borderopacity="1.0"
     inkscape:pageopacity="0.0"
     inkscape:pageshadow="2"
     inkscape:zoom="22.627417"
     inkscape:cx="15.969438"
     inkscape:cy="12.01295"
     inkscape:document-units="px"
     inkscape:current-layer="layer1"
     showgrid="true"
     inkscape:window-width="1920"
     inkscape:window-height="1033"
     inkscape:window-x="-10"
     inkscape:window-y="25"
     inkscape:window-maximized="1"
     inkscape:snap-bbox="true"
     inkscape:bbox-paths="true"
     inkscape:bbox-nodes="true"
     inkscape:snap-bbox-edge-midpoints="true"
     inkscape:snap-bbox-midpoints="true"
     inkscape:object-paths="true"
     inkscape:snap-intersection-paths="true"
     inkscape:object-nodes="true"
     inkscape:snap-smooth-nodes="true"
     inkscape:snap-midpoints="true"
     inkscape:snap-object-midpoints="true"
     inkscape:snap-center="true"
     inkscape:snap-global="true"
     showguides="false"
     inkscape:guide-bbox="true"
     fit-margin-top="0"
     fit-margin-left="0"
     fit-margin-right="0"
     fit-margin-bottom="0"
     inkscape:showpageshadow="false">
    <sodipodi:guide
       orientation="0,1"
       position="599.99999,299.99993"
       id="guide3572"
       inkscape:locked="false" />
    <sodipodi:guide
       orientation="1,0"
       position="294.41949,12.121716"
       id="guide3574"
       inkscape:locked="false" />
    <sodipodi:guide
       orientation="0,1"
       position="456.04389,599.99992"
       id="guide3576"
       inkscape:locked="false" />
    <sodipodi:guide
       orientation="0,1"
       position="-2.8882813e-06,-8.4406273e-05"
       id="guide3578"
       inkscape:locked="false" />
    <sodipodi:guide
       orientation="1,0"
       position="-2.8882813e-06,157.58366"
       id="guide3580"
       inkscape:locked="false" />
    <sodipodi:guide
       orientation="1,0"
       position="599.99999,121.21821"
       id="guide3582"
       inkscape:locked="false" />
    <sodipodi:guide
       orientation="0,1"
       position="599.99999,-714.34359"
       id="guide5928"
       inkscape:locked="false" />
    <sodipodi:guide
       orientation="0,1"
       position="599.99999,-414.34359"
       id="guide5930"
       inkscape:locked="false" />
    <sodipodi:guide
       orientation="0,1"
       position="599.99999,-1014.3435"
       id="guide5932"
       inkscape:locked="false" />
    <sodipodi:guide
       orientation="0,1"
       position="451.57029,524.99606"
       id="guide5294"
       inkscape:locked="false" />
    <sodipodi:guide
       orientation="0,1"
       position="451.57029,75.013516"
       id="guide5296"
       inkscape:locked="false" />
    <sodipodi:guide
       orientation="0,1"
       position="496.01499,-931.36409"
       id="guide5413"
       inkscape:locked="false" />
    <sodipodi:guide
       orientation="0,1"
       position="457.34859,-489.34389"
       id="guide5415"
       inkscape:locked="false" />
    <inkscape:grid
       type="xygrid"
       id="grid3070"
       empspacing="5"
       visible="true"
       enabled="true"
       snapvisiblegridlinesonly="true"
       originx="4.3243213e-05"
       originy="-2.6947047e-05"
       spacingx="1"
       spacingy="1" />
  </sodipodi:namedview>
  <metadata
     id="metadata27670">
    <rdf:RDF>
      <cc:Work
         rdf:about="">
        <dc:format>image/svg+xml</dc:format>
        <dc:type
           rdf:resource="http://purl.org/dc/dcmitype/StillImage" />
        <dc:title />
      </cc:Work>
    </rdf:RDF>
  </metadata>
  <g
     inkscape:label="Camada 1"
     inkscape:groupmode="layer"
     id="layer1"
     transform="translate(3364.4171,-2092.7186)">
    <path
       style="color:#000000;font-style:normal;font-variant:normal;font-weight:normal;font-stretch:normal;font-size:medium;line-height:normal;font-family:sans-serif;font-variant-ligatures:normal;font-variant-position:normal;font-variant-caps:normal;font-variant-numeric:normal;font-variant-alternates:normal;font-feature-settings:normal;text-indent:0;text-align:start;text-decoration:none;text-decoration-line:none;text-decoration-style:solid;text-decoration-color:#000000;letter-spacing:normal;word-spacing:normal;text-transform:none;writing-mode:lr-tb;direction:ltr;text-orientation:mixed;dominant-baseline:auto;baseline-shift:baseline;text-anchor:start;white-space:normal;shape-padding:0;clip-rule:nonzero;display:inline;overflow:visible;visibility:visible;opacity:1;isolation:auto;mix-blend-mode:normal;color-interpolation:sRGB;color-interpolation-filters:linearRGB;solid-color:#000000;solid-opacity:1;vector-effect:none;fill:#f1f3f5;fill-opacity:0.90288714;fill-rule:nonzero;stroke:none;stroke-width:2;stroke-linecap:butt;stroke-linejoin:miter;stroke-miterlimit:4;stroke-dasharray:none;stroke-dashoffset:0;stroke-opacity:1;marker:none;paint-order:normal;color-rendering:auto;image-rendering:auto;shape-rendering:auto;text-rendering:auto;enable-background:accumulate;font-variant-east_asian:normal"
       d="M 16 3 C 15.1 3 14.451031 3.6784125 14.207031 4.5078125 C 13.863531 4.2310125 13.4675 4 13 4 L 11 4 C 9.9094 4 9 4.9094 9 6 C 9 4.9094 8.0906 4 7 4 L 6 4 C 4.9094 4 4 4.9094 4 6 L 4 7 C 4 8.0906 4.9094 9 6 9 C 4.9094 9 4 9.9094 4 11 L 4 13 C 4 13.4675 4.2310125 13.863531 4.5078125 14.207031 C 3.6784125 14.451031 3 15.1 3 16 L 3 19 C 3 20.0906 3.9094 21 5 21 L 8 21 C 8.9 21 9.5489687 20.321588 9.7929688 19.492188 C 10.136469 19.768988 10.5325 20 11 20 L 13 20 C 14.0906 20 15 19.0906 15 18 C 15 19.0906 15.9094 20 17 20 L 18 20 C 19.0906 20 20 19.0906 20 18 L 20 17 C 20 15.9094 19.0906 15 18 15 C 19.0906 15 20 14.0906 20 13 L 20 11 C 20 10.5325 19.768987 10.136469 19.492188 9.7929688 C 20.321588 9.5489687 21 8.9 21 8 L 21 5 C 21 3.9094 20.0906 3 19 3 L 16 3 z M 16 4 L 19 4 C 19.5541 4 20 4.4459 20 5 L 20 8 C 20 8.5541 19.5541 9 19 9 L 16 9 C 15.4459 9 15 8.5541 15 8 L 15 5 C 15 4.4459 15.4459 4 16 4 z M 6 5 L 7 5 C 7.5541 5 8 5.4459 8 6 L 8 7 C 8 7.5541 7.5541 8 7 8 L 6 8 C 5.4459 8 5 7.5541 5 7 L 5 6 C 5 5.4459 5.4459 5 6 5 z M 11 5 L 13 5 C 13.5541 5 14 5.4459 14 6 L 14 8 C 14 8.5541 13.5541 9 13 9 L 11 9 C 10.4459 9 10 8.5541 10 8 L 10 6 C 10 5.4459 10.4459 5 11 5 z M 9 7 L 9 8 C 9 8.63 9.3440469 9.1313 9.8105469 9.5 C 9.6851469 9.599 9.5991 9.6851469 9.5 9.8105469 C 9.1313 9.3440469 8.63 9 8 9 L 7 9 C 8.0906 9 9 8.0906 9 7 z M 14.5 9.1894531 C 14.599 9.3148531 14.685147 9.4009 14.810547 9.5 C 14.685147 9.599 14.5991 9.6851469 14.5 9.8105469 C 14.401 9.6851469 14.314853 9.5991 14.189453 9.5 C 14.314853 9.401 14.4009 9.3148531 14.5 9.1894531 z M 6 10 L 8 10 C 8.5541 10 9 10.4459 9 11 L 9 13 C 9 13.5541 8.5541 14 8 14 L 6 14 C 5.4459 14 5 13.5541 5 13 L 5 11 C 5 10.4459 5.4459 10 6 10 z M 11 10 L 13 10 C 13.5541 10 14 10.4459 14 11 L 14 13 C 14 13.5541 13.5541 14 13 14 L 11 14 C 10.4459 14 10 13.5541 10 13 L 10 11 C 10 10.4459 10.4459 10 11 10 z M 16 10 L 18 10 C 18.5541 10 19 10.4459 19 11 L 19 13 C 19 13.5541 18.5541 14 18 14 L 16 14 C 15.4459 14 15 13.5541 15 13 L 15 11 C 15 10.4459 15.4459 10 16 10 z M 9.5 14.189453 C 9.599 14.314853 9.6851469 14.4009 9.8105469 14.5 C 9.6851469 14.599 9.5991 14.685147 9.5 14.810547 C 9.401 14.685147 9.3148531 14.5991 9.1894531 14.5 C 9.3148531 14.401 9.4009 14.314853 9.5 14.189453 z M 14.5 14.189453 C 14.8687 14.655953 15.37 15 16 15 L 17 15 C 15.9094 15 15 15.9094 15 17 L 15 16 C 15 15.37 14.655953 14.8687 14.189453 14.5 C 14.314853 14.401 14.4009 14.314853 14.5 14.189453 z M 5 15 L 8 15 C 8.5541 15 9 15.4459 9 16 L 9 19 C 9 19.5541 8.5541 20 8 20 L 5 20 C 4.4459 20 4 19.5541 4 19 L 4 16 C 4 15.4459 4.4459 15 5 15 z M 11 15 L 13 15 C 13.5541 15 14 15.4459 14 16 L 14 18 C 14 18.5541 13.5541 19 13 19 L 11 19 C 10.4459 19 10 18.5541 10 18 L 10 16 C 10 15.4459 10.4459 15 11 15 z M 17 16 L 18 16 C 18.5541 16 19 16.4459 19 17 L 19 18 C 19 18.5541 18.5541 19 18 19 L 17 19 C 16.4459 19 16 18.5541 16 18 L 16 17 C 16 16.4459 16.4459 16 17 16 z "
       transform="translate(-3364.4171,2092.7186)"
       id="rect25" />
    <path
       inkscape:connector-curvature="0"
       style="opacity:1;vector-effect:none;fill:#27303a;fill-opacity:0.75328082;fill-rule:nonzero;stroke:none;stroke-width:1;stroke-linecap:butt;stroke-linejoin:miter;stroke-miterlimit:4;stroke-dasharray:none;stroke-dashoffset:0;stroke-opacity:1;marker:none;paint-order:normal"
       d="m -3348.4171,2096.7186 c -0.5541,0 -1,0.4459 -1,1 v 3 c 0,0.5541 0.4459,1 1,1 h 3 c 0.5541,0 1,-0.4459 1,-1 v -3 c 0,-0.5541 -0.4459,-1 -1,-1 z m -10,1 c -0.5541,0 -1,0.4459 -1,1 v 1 c 0,0.5541 0.4459,1 1,1 h 1 c 0.5541,0 1,-0.4459 1,-1 v -1 c 0,-0.5541 -0.4459,-1 -1,-1 z m 5,0 c -0.5541,0 -1,0.4459 -1,1 v 2 c 0,0.5541 0.4459,1 1,1 h 2 c 0.5541,0 1,-0.4459 1,-1 v -2 c 0,-0.5541 -0.4459,-1 -1,-1 z m -5,5 c -0.5541,0 -1,0.4459 -1,1 v 2 c 0,0.5541 0.4459,1 1,1 h 2 c 0.5541,0 1,-0.4459 1,-1 v -2 c 0,-0.5541 -0.4459,-1 -1,-1 z m 5,0 c -0.5541,0 -1,0.4459 -1,1 v 2 c 0,0.5541 0.4459,1 1,1 h 2 c 0.5541,0 1,-0.4459 1,-1 v -2 c 0,-0.5541 -0.4459,-1 -1,-1 z m 5,0 c -0.5541,0 -1,0.4459 -1,1 v 2 c 0,0.5541 0.4459,1 1,1 h 2 c 0.5541,0 1,-0.4459 1,-1 v -2 c 0,-0.5541 -0.4459,-1 -1,-1 z m -11,5 c -0.5541,0 -1,0.4459 -1,1 v 3 c 0,0.5541 0.4459,1 1,1 h 3 c 0.5541,0 1,-0.4459 1,-1 v -3 c 0,-0.5541 -0.4459,-1 -1,-1 z m 6,0 c -0.5541,0 -1,0.4459 -1,1 v 2 c 0,0.5541 0.4459,1 1,1 h 2 c 0.5541,0 1,-0.4459 1,-1 v -2 c 0,-0.5541 -0.4459,-1 -1,-1 z m 6,1 c -0.5541,0 -1,0.4459 -1,1 v 1 c 0,0.5541 0.4459,1 1,1 h 1 c 0.5541,0 1,-0.4459 1,-1 v -1 c 0,-0.5541 -0.4459,-1 -1,-1 z"
       id="path882" />
  </g>
</svg>
